X: 3148
T: Beauty Spot, The
R: reel
M: 4/4
K: Adorian
dB|A2 AF A2 dB|{d}cAAG EFGc|(3ABA AF A2 dB|cAGE ED D2|
(3ABA AF A2 dB|{d}cAAG EFGc|(3ABA AF A2 dB|cAGE EDD2||
e~d3 edcd|e~d3 eaag|e~d3 edcA|ABcd edd2|
e~d3 edcd|e~d3 eaag|afge fde^c|Add^c dedc||

